wp-content/plugins/wordpress-seo/packages/js/images/elementor-logo.svg

<svg xmlns="http://www.w3.org/2000/svg" width="170" height="70" viewBox="0 0 810 160" fill="none"><g clip-path="url(#clip0)"><path d="M505.95 73.9793C505.95 73.9793 499.077 75.6221 493.262 77.0086L484.423 79.0242C484.4 79.0242 484.365 79.0242 484.342 79.0242C484.342 76.6357 484.516 74.1191 485.086 71.8005C485.819 68.8294 487.424 65.3574 490.215 63.8311C493.25 62.1766 496.949 61.9785 500.159 63.2602C503.485 64.5768 505.008 67.7925 505.66 71.1247C505.846 72.0568 505.962 72.9889 506.055 73.9327L505.95 73.9793ZM529.001 79.0242C529.001 55.9199 514.475 45.9931 495.914 45.9931C474.933 45.9931 461.791 60.5454 461.791 79.1408C461.791 99.3556 472.979 112.521 497.065 112.521C510.091 112.521 517.464 110.214 526.233 105.822L522.895 90.6871C516.208 93.6931 509.986 95.534 501.682 95.534C492.576 95.534 487.389 92.0736 485.423 85.6072H528.42C528.768 83.8711 529.001 81.9021 529.001 79.0242Z" fill="#92003B"></path><path d="M312.998 73.9793C312.998 73.9793 306.124 75.6221 300.309 77.0086L291.471 79.0242C291.447 79.0242 291.412 79.0242 291.389 79.0242C291.389 76.6357 291.564 74.1191 292.133 71.8005C292.866 68.8294 294.471 65.3574 297.262 63.8311C300.298 62.1766 303.996 61.9785 307.206 63.2602C310.532 64.5768 312.056 67.7925 312.707 71.1247C312.893 72.0568 313.009 72.9889 313.102 73.9327L312.998 73.9793ZM336.048 79.0242C336.048 55.9199 321.522 45.9931 302.961 45.9931C281.981 45.9931 268.839 60.5454 268.839 79.1408C268.839 99.3556 280.027 112.521 304.112 112.521C317.138 112.521 324.511 110.214 333.28 105.822L329.943 90.6871C323.255 93.6931 317.033 95.534 308.729 95.534C299.623 95.534 294.436 92.0736 292.471 85.6072H335.467C335.816 83.8711 336.048 81.9021 336.048 79.0242Z" fill="#92003B"></path><path d="M259.814 29.0174H238.519V110.203H259.814V29.0174Z" fill="#92003B"></path><path d="M533.49 48.067H555.854L560.564 62.4213C563.507 55.3374 570.136 46.2261 581.894 46.2261C598.036 46.2261 606.793 54.4286 606.793 75.5638V110.214H584.429C584.429 102.991 584.441 95.7787 584.452 88.5549C584.452 85.246 584.394 81.937 584.441 78.6281C584.475 75.5755 584.696 72.418 583.068 69.68C581.963 67.8274 580.161 66.4642 578.219 65.5322C574.276 63.6447 569.996 63.6913 566.123 65.7186C565.17 66.2196 560.564 68.7129 560.564 69.8664V110.214H538.2V64.8331L533.49 48.067Z" fill="#92003B"></path><path d="M623.704 64.3554H613.446V48.067H623.704V37.8839L646.068 32.6059V48.067H668.549V64.3554H646.068V82.6012C646.068 89.7666 649.523 93.1105 654.71 93.1105C660.013 93.1105 663.013 92.4115 667.502 90.9201L670.154 107.779C664.048 110.436 656.442 111.706 648.708 111.706C632.45 111.706 623.692 103.969 623.692 88.9511V64.3554H623.704Z" fill="#92003B"></path><path d="M710.394 94.031C718.581 94.031 723.419 88.1355 723.419 78.6748C723.419 69.214 718.814 63.7729 710.743 63.7729C702.555 63.7729 697.834 69.2023 697.834 79.0126C697.834 88.2637 702.439 94.031 710.394 94.031ZM710.627 45.6436C731.607 45.6436 746.935 58.8095 746.935 79.2457C746.935 99.7984 731.607 112.16 710.394 112.16C689.297 112.16 674.306 99.4605 674.306 79.2457C674.306 58.8095 689.181 45.6436 710.627 45.6436Z" fill="#92003B"></path><path d="M441.754 47.8807C437.8 46.2496 433.322 45.6437 429.042 46.2612C426.867 46.5758 424.739 47.205 422.762 48.1837C417.342 50.8634 413.121 56.9803 410.853 62.4331C409.364 56.1531 405.026 50.5139 398.688 47.8924C394.734 46.2612 390.256 45.6554 385.976 46.2729C383.802 46.5875 381.673 47.2166 379.696 48.1953C374.288 50.8634 370.078 56.957 367.799 62.3981V62.002L363.24 48.0905H340.875L345.586 64.8565V110.226H367.799V69.6685C367.88 69.3655 368.869 68.8063 369.043 68.6781C371.648 66.8256 374.707 64.9148 377.963 64.6818C381.29 64.4371 384.569 66.1265 386.546 68.7713C386.756 69.0626 386.953 69.3539 387.139 69.6568C388.768 72.3949 388.547 75.5523 388.512 78.6049C388.477 81.9139 388.523 85.2228 388.523 88.5318C388.512 95.7555 388.5 102.968 388.5 110.191H410.865V75.5523C410.865 75.3776 410.865 75.2028 410.865 75.0397V69.6918C410.911 69.4005 411.935 68.8179 412.121 68.6898C414.726 66.8372 417.784 64.9264 421.041 64.6934C424.367 64.4487 427.647 66.1382 429.624 68.783C429.833 69.0743 430.031 69.3655 430.217 69.6685C431.845 72.4065 431.624 75.564 431.589 78.6166C431.554 81.9255 431.601 85.2345 431.601 88.5434C431.589 95.7671 431.578 102.979 431.578 110.203H453.942V75.5523C453.942 65.3925 452.488 52.3082 441.754 47.8807Z" fill="#92003B"></path><path d="M799.827 46.2261C788.069 46.2261 781.452 55.349 778.498 62.4213L773.787 48.067H751.423L756.133 64.8331V110.203H778.498V68.2818C781.684 67.7226 798.978 70.915 802.258 72.1151V46.3077C801.467 46.2611 800.664 46.2261 799.827 46.2261Z" fill="#92003B"></path><path d="M206.444 73.9793C206.444 73.9793 199.571 75.6221 193.756 77.0086L184.917 79.0242C184.894 79.0242 184.859 79.0242 184.836 79.0242C184.836 76.6357 185.01 74.1191 185.58 71.8005C186.313 68.8294 187.918 65.3574 190.709 63.8311C193.744 62.1766 197.443 61.9785 200.653 63.2602C203.979 64.5768 205.502 67.7925 206.154 71.1247C206.34 72.0568 206.456 72.9889 206.549 73.9327L206.444 73.9793ZM229.495 79.0242C229.495 55.9199 214.969 45.9931 196.408 45.9931C175.427 45.9931 162.285 60.5454 162.285 79.1408C162.285 99.3556 173.473 112.521 197.559 112.521C210.585 112.521 217.958 110.214 226.727 105.822L223.389 90.6871C216.702 93.6931 210.48 95.534 202.176 95.534C193.07 95.534 187.883 92.0736 185.917 85.6072H228.913C229.262 83.8711 229.495 81.9021 229.495 79.0242Z" fill="#92003B"></path><path d="M66.141 16.0495C30.8557 16.0495 2.25763 44.6998 2.25763 80.0495C2.25763 115.388 30.8557 144.05 66.141 144.05C101.426 144.05 130.024 115.399 130.024 80.0495C130.013 44.6998 101.415 16.0495 66.141 16.0495ZM50.1731 106.707H39.5316V53.3799H50.1731V106.707ZM92.7503 106.707H60.8145V96.0466H92.7503V106.707ZM92.7503 85.3741H60.8145V74.7133H92.7503V85.3741ZM92.7503 64.0408H60.8145V53.3799H92.7503V64.0408Z" fill="#92003B"></path></g><defs><clipPath id="clip0"><rect width="795.828" height="127.901" fill="white" transform="translate(2.25763 16.0495)"></rect></clipPath></defs></svg>

<svg xmlns="http://www.w3.org/2000/svg" width="170" height="70" viewBox="0 0 810 160" fill="none" role="img" aria-hidden="true" focusable="false"><g clip-path="url(#clip0)" fill="#92003B"><path d="M505.95 73.98s-6.873 1.642-12.688 3.029l-8.839 2.015h-.081c0-2.388.174-4.905.744-7.224.733-2.97 2.338-6.443 5.129-7.969 3.035-1.654 6.734-1.853 9.944-.57 3.326 1.316 4.849 4.532 5.501 7.864.186.932.302 1.864.395 2.808l-.105.046zm23.051 5.044c0-23.104-14.526-33.03-33.087-33.03-20.981 0-34.123 14.551-34.123 33.147 0 20.215 11.188 33.38 35.274 33.38 13.026 0 20.399-2.307 29.168-6.699l-3.338-15.135c-6.687 3.006-12.909 4.847-21.213 4.847-9.106 0-14.293-3.46-16.259-9.927h42.997c.348-1.736.581-3.705.581-6.583zM312.998 73.98s-6.874 1.642-12.689 3.029l-8.838 2.015h-.082c0-2.388.175-4.905.744-7.224.733-2.97 2.338-6.443 5.129-7.969 3.036-1.654 6.734-1.853 9.944-.57 3.326 1.316 4.85 4.532 5.501 7.864.186.932.302 1.864.395 2.808l-.104.046zm23.05 5.044c0-23.104-14.526-33.03-33.087-33.03-20.98 0-34.122 14.551-34.122 33.147 0 20.215 11.188 33.38 35.273 33.38 13.026 0 20.399-2.307 29.168-6.699l-3.337-15.135c-6.688 3.006-12.91 4.847-21.214 4.847-9.106 0-14.293-3.46-16.258-9.927h42.996c.349-1.736.581-3.705.581-6.583zm-76.234-50.007h-21.295v81.186h21.295V29.017zm273.676 19.05h22.364l4.71 14.354c2.943-7.084 9.572-16.195 21.33-16.195 16.142 0 24.899 8.203 24.899 29.338v34.65h-22.364c0-7.223.012-14.435.023-21.66 0-3.308-.058-6.617-.011-9.926.034-3.052.255-6.21-1.373-8.948-1.105-1.853-2.907-3.216-4.849-4.148-3.943-1.887-8.223-1.84-12.096.187-.953.5-5.559 2.994-5.559 4.147v40.348H538.2v-45.38l-4.71-16.767zm90.214 16.288h-10.258V48.067h10.258V37.884l22.364-5.278v15.461h22.481v16.288h-22.481v18.246c0 7.166 3.455 10.51 8.642 10.51 5.303 0 8.303-.7 12.792-2.19l2.652 16.858c-6.106 2.657-13.712 3.927-21.446 3.927-16.258 0-25.016-7.737-25.016-22.755V64.355h.012zm86.69 29.676c8.187 0 13.025-5.896 13.025-15.356 0-9.461-4.605-14.902-12.676-14.902-8.188 0-12.909 5.43-12.909 15.24 0 9.25 4.605 15.018 12.56 15.018zm.233-48.387c20.98 0 36.308 13.166 36.308 33.602 0 20.552-15.328 32.914-36.541 32.914-21.097 0-36.088-12.7-36.088-32.914 0-20.436 14.875-33.602 36.321-33.602zM441.754 47.88c-3.954-1.63-8.432-2.236-12.712-1.619-2.175.315-4.303.944-6.28 1.923-5.42 2.68-9.641 8.796-11.909 14.25-1.489-6.28-5.827-11.92-12.165-14.542-3.954-1.63-8.432-2.237-12.712-1.62-2.174.316-4.303.945-6.28 1.923-5.408 2.668-9.618 8.762-11.897 14.203v-.396L363.24 48.09h-22.365l4.711 16.766v45.37h22.213V69.668c.081-.303 1.07-.862 1.244-.99 2.605-1.852 5.664-3.763 8.92-3.996 3.327-.245 6.606 1.444 8.583 4.09.21.29.407.582.593.885 1.629 2.738 1.408 5.895 1.373 8.948-.035 3.309.011 6.618.011 9.927-.011 7.224-.023 14.436-.023 21.659h22.365V69.692c.046-.291 1.07-.874 1.256-1.002 2.605-1.853 5.663-3.764 8.92-3.997 3.326-.244 6.606 1.445 8.583 4.09.209.291.407.582.593.885 1.628 2.738 1.407 5.896 1.372 8.949-.035 3.308.012 6.617.012 9.926-.012 7.224-.023 14.436-.023 21.66h22.364v-34.65c0-10.16-1.454-23.245-12.188-27.672zm358.073-1.654c-11.758 0-18.375 9.123-21.329 16.195l-4.711-14.354h-22.364l4.71 16.766v45.37h22.365V68.282c3.186-.56 20.48 2.633 23.76 3.833V46.308a40.988 40.988 0 0 0-2.431-.082zM206.444 73.98s-6.873 1.642-12.688 3.029l-8.839 2.015h-.081c0-2.388.174-4.905.744-7.224.733-2.97 2.338-6.443 5.129-7.969 3.035-1.654 6.734-1.853 9.944-.57 3.326 1.316 4.849 4.532 5.501 7.864.186.932.302 1.864.395 2.808l-.105.046zm23.051 5.044c0-23.104-14.526-33.03-33.087-33.03-20.981 0-34.123 14.551-34.123 33.147 0 20.215 11.188 33.38 35.274 33.38 13.026 0 20.399-2.307 29.168-6.699l-3.338-15.135c-6.687 3.006-12.909 4.847-21.213 4.847-9.106 0-14.293-3.46-16.259-9.927h42.996c.349-1.736.582-3.705.582-6.583zM66.141 16.05c-35.285 0-63.883 28.65-63.883 64 0 35.338 28.598 64 63.883 64 35.285 0 63.883-28.651 63.883-64-.011-35.35-28.609-64-63.883-64zm-15.968 90.657H39.532V53.38h10.641v53.327zm42.577 0H60.815v-10.66H92.75v10.66zm0-21.333H60.815v-10.66H92.75v10.66zm0-21.333H60.815V53.38H92.75v10.66z"/></g><defs><clipPath id="clip0"><path fill="#fff" transform="translate(2.258 16.05)" d="M0 0h795.828v127.901H0z"/></clipPath></defs></svg>
